X: 24887
T: Magoo's
R: jig
M: 6/8
K: Gmajor
B3 dBG|GFG BGD|EFG Ddc|BAG ABc|
B3 dBG|GFG BGD|EFG Ddc|1 BGF GAc:|2 BGF GAB||
|:c3 edc|BAB dBG|FAD FAD|ded BAG|
cBc edc|B3 dBG|FGA Adc|1 BGF GAB:|2 BGFG3||

